X: 17712
T: Home
R: waltz
M: 3/4
K: Gmajor
|:B,C|"G" D4 BA|"C" G2 F2 E2|"G" D4 B,2|
"G" D4 D2|"C" E6|"Am" C6|"D7" A,6-|"D7" A,4:|
A2|"D7" A4 AA|"D7" A2 G2 A2|"G" B4 A2|"G" G4-G D|
"C" EG-G2 G2|"C" G2 F2 E2|"G" D6-|"G" D4A2|
"D7" A4 AA|"D7" A2 G2 A2|"G" B4 A2|"Em" G4-GD|
"C" EG-G2G2|"D7" A2 F2 D2|"G" DG- G4|"D7" z6|

